X:125
T: Flynn's
C: Eamon Flynn
Z: B.Black
R: reel
M: 4/4
L: 1/8
K: Edor
ED | B,EGB edBA | GBAG FDDF | EDEF GFGA |\
Beef (3gfe fd |
eagf e2 BA | GBAG FADF | EDEF GBed | BAGF E2 :|
zf | eBef (3gfg fg | edBA B,EGB | Ad (3dcd fdec |\
dBAF DEFA |
ABAf gbfg |edBG B,EGB |Ad (3dcd fdec |dBAF E2 :|
